src/assets/icons/math-symbols,simple,question-mark.svg

<svg width="48" height="48" viewBox="0 0 48 48" fill="none" xmlns="http://www.w3.org/2000/svg">
<rect opacity="0.2" x="5" y="5" width="38" height="38" rx="4" fill="black"/>
<path d="M21.1818 29.2408H25.354V28.8665C25.3761 26.7198 26.1467 25.718 27.886 24.6722C29.9446 23.4503 31.2876 21.832 31.2876 19.245C31.2876 15.392 28.1832 13.1463 23.8129 13.1463C19.8168 13.1463 16.5582 15.2379 16.4592 19.6413H20.9506C21.0167 17.8469 22.3487 16.8892 23.7908 16.8892C25.277 16.8892 26.4769 17.88 26.4769 19.4102C26.4769 20.8523 25.4311 21.81 24.0771 22.6687C22.2276 23.8356 21.1928 25.0135 21.1818 28.8665V29.2408ZM23.3505 36.2862C24.7596 36.2862 25.9815 35.1083 25.9925 33.6442C25.9815 32.2021 24.7596 31.0241 23.3505 31.0241C21.8974 31.0241 20.6974 32.2021 20.7085 33.6442C20.6974 35.1083 21.8974 36.2862 23.3505 36.2862Z" fill="black"/>
</svg>

<svg xmlns="http://www.w3.org/2000/svg" width="48" height="48" fill="none" viewBox="0 0 48 48">
  <rect width="38" height="38" x="5" y="5" fill="#000" opacity=".2" rx="4"/>
  <path fill="#000" d="M21.182 29.24h4.172v-.373c.022-2.147.793-3.149 2.532-4.195 2.059-1.222 3.402-2.84 3.402-5.427 0-3.853-3.105-6.099-7.475-6.099-3.996 0-7.255 2.092-7.354 6.495h4.492c.066-1.794 1.398-2.752 2.84-2.752 1.486 0 2.686.991 2.686 2.521 0 1.442-1.046 2.4-2.4 3.259-1.85 1.167-2.884 2.345-2.895 6.197v.375zm2.169 7.046c1.409 0 2.63-1.178 2.642-2.642-.011-1.442-1.233-2.62-2.642-2.62-1.454 0-2.654 1.178-2.642 2.62-.012 1.464 1.188 2.642 2.642 2.642z"/>
</svg>
